X:74
T:Steyrer Tanz in G, nr. 36
C:traditionell
R:Steirer
A:Hallstatt, Salzkammergut
B:Corpus Musicae Popularis Austriacae (COMPA), 5.Band: J.M.Schmalnauer " Tanz Musik", Verlag Boehlau, Wien 1996
S:manuscript des Johann Michael Schmalnauer um 1820
N:im der quelle in G
Z:abc transcription Simon Wascher
F:http://simonwascher.info/TradArchiv/
M:3/4
L:1/8
K:G
V:1
%violino 1mo
(Bc) |\
(dc)(Bg).f.e | (dD).G.B d2 | cDFA c2 | BDGABc |\
(dc)(Bg).f.e | (dD).G.B d2 | cDFAcD | "in D" G4 :|
V:2
%violino 2do
.G.A |\
BA G"4"edc | BGB,G TB2 | AFA,F TA2 | GG,B,DGA |\
BA G"4"edc | BGB,G TB2 | AFA,FAD | B,4 :|
